X:1
T:[ID 2-46b]
T:[ID 2-46b]
T:Bezeichnung standardisiert: Menuett Menuet 23.
T:Urheber unbekannt Datum in der hier transkribierten schriftlichen Quelle: 1775
C:Urheber unbekannt
C:Datum in der hier transkribierten schriftlichen Quelle: 1775
L:1/8
M:3/4
K:D
V:1 treble 
V:1
 f2 f2 f2 | f2 afge | f2 F2 F2 | F2 AFGE | F2 d2 B2 | ef c4 | B2 A2 d2 |{f} c6 :: c2 c2 c2 | %9
 c2 ecdB | c2 f2 f2 | f2 AFGE | F2 g2 f2 |{f} e4 d2 | cedAFE | F6 :| %16

